public/common/logo-black-desktop.svg

<svg width="227" height="55" viewBox="0 0 227 55" fill="none" xmlns="http://www.w3.org/2000/svg">
<g id="Vector">
<path d="M85.4692 44.872H9.26285C4.14731 44.872 0 40.7166 0 35.5911V9.28092C0 4.1554 4.14731 0 9.26285 0H76.2064C81.3219 0 85.4692 4.1554 85.4692 9.28092V44.872Z" fill="#34D186"/>
<path d="M10.6632 10.1404H16.8352L21.8877 24.4679L27.3249 10.1404H31.1001L36.4395 24.3036L41.4983 10.1404H47.7114L38.54 35.3225H34.5441L29.1857 20.9729L23.6665 35.3225H19.7178L10.6632 10.1404Z" fill="white"/>
<path d="M76.4618 24.5595H56.2015C56.4948 26.3512 57.277 27.7732 58.5448 28.8287C59.8158 29.8873 61.4369 30.415 63.4081 30.415C65.764 30.415 67.7888 29.5902 69.4824 27.9376L74.7966 30.4371C73.472 32.3205 71.8856 33.7109 70.0375 34.6146C68.1893 35.5184 65.9942 35.9703 63.4554 35.9703C59.5131 35.9703 56.3025 34.7252 53.8235 32.232C51.3446 29.7388 50.1052 26.6198 50.1052 22.8689C50.1052 19.0264 51.3415 15.8379 53.8109 13.2973C56.2835 10.7598 59.3806 9.48948 63.1085 9.48948C67.0665 9.48948 70.2835 10.7598 72.7655 13.2973C75.2445 15.8348 76.4839 19.1875 76.4839 23.3524L76.4618 24.5595ZM70.1542 19.5857C69.7378 18.1826 68.9178 17.0387 67.691 16.1602C66.4642 15.2818 65.0418 14.8425 63.4207 14.8425C61.6608 14.8425 60.1186 15.3355 58.794 16.3246C57.9614 16.9408 57.1887 18.031 56.4791 19.5888H70.1542V19.5857Z" fill="white"/>
<path d="M101.816 19.6015H108.123V44.7835H101.816V19.6015Z" fill="#232524"/>
<path d="M90.4744 9.88132H96.7821V44.7835H90.4744V9.88132Z" fill="#232524"/>
<path d="M104.969 9.23352C106.073 9.23352 107.023 9.63484 107.814 10.4375C108.606 11.2401 109 12.2134 109 13.3542C109 14.4791 108.609 15.4398 107.827 16.2361C107.045 17.0324 106.108 17.4274 105.017 17.4274C103.897 17.4274 102.938 17.0229 102.15 16.2108C101.358 15.4018 100.964 14.4159 100.964 13.2594C100.964 12.147 101.355 11.199 102.137 10.4122C102.919 9.62536 103.862 9.23352 104.969 9.23352Z" fill="#34D186"/>
<path d="M120.158 19.6015V22.1832C121.587 20.9761 122.883 20.1355 124.044 19.6615C125.205 19.1907 126.394 18.9537 127.608 18.9537C130.099 18.9537 132.212 19.8258 133.95 21.5702C135.41 23.0522 136.142 25.2421 136.142 28.143V44.7835H129.904V33.7551C129.904 30.75 129.768 28.756 129.5 27.7669C129.232 26.7778 128.762 26.0289 128.093 25.5138C127.425 24.9988 126.599 24.7396 125.618 24.7396C124.344 24.7396 123.249 25.1662 122.335 26.0226C121.42 26.879 120.786 28.0608 120.433 29.5713C120.25 30.3581 120.155 32.0614 120.155 34.681V44.7835H113.848V19.6015H120.158Z" fill="#232524"/>
<path d="M167.094 19.6015V41.1716C167.094 45.4313 166.239 48.5629 164.53 50.5695C162.234 53.2839 158.777 54.6427 154.157 54.6427C151.694 54.6427 149.622 54.333 147.944 53.7168C146.266 53.1006 144.85 52.1937 143.692 50.9961C142.538 49.7984 141.683 48.3448 141.128 46.6321H148.083C148.698 47.3431 149.492 47.8772 150.461 48.2406C151.429 48.604 152.577 48.7841 153.901 48.7841C155.595 48.7841 156.957 48.5218 157.989 47.9972C159.02 47.4727 159.749 46.7933 160.171 45.959C160.594 45.1248 160.805 43.6902 160.805 41.6551C159.695 42.7674 158.534 43.5638 157.317 44.0504C156.1 44.537 154.721 44.7804 153.182 44.7804C149.811 44.7804 146.96 43.5606 144.635 41.1242C142.311 38.6879 141.147 35.6006 141.147 31.8654C141.147 27.868 142.38 24.6606 144.844 22.2369C147.076 20.047 149.741 18.9505 152.835 18.9505C154.283 18.9505 155.649 19.216 156.935 19.75C158.222 20.2809 159.512 21.1594 160.805 22.376V19.6015H167.094ZM154.274 24.8566C152.287 24.8566 150.647 25.5233 149.354 26.86C148.06 28.1935 147.414 29.8715 147.414 31.8939C147.414 33.9921 148.076 35.7112 149.401 37.0542C150.725 38.3972 152.388 39.0671 154.39 39.0671C156.346 39.0671 157.96 38.4098 159.228 37.0984C160.499 35.787 161.133 34.068 161.133 31.9381C161.133 29.8399 160.493 28.1335 159.216 26.8221C157.938 25.5107 156.292 24.8566 154.274 24.8566Z" fill="#232524"/>
<path d="M173.449 19.6015H179.823V31.7296C179.823 34.0901 179.984 35.7301 180.309 36.6465C180.633 37.5661 181.154 38.2771 181.873 38.7858C182.592 39.2946 183.475 39.5506 184.525 39.5506C185.575 39.5506 186.465 39.3009 187.2 38.7985C187.935 38.296 188.477 37.5598 188.833 36.5896C189.095 35.866 189.228 34.3144 189.228 31.9381V19.6015H195.535V30.2696C195.535 34.6684 195.188 37.6767 194.495 39.2946C193.646 41.2696 192.4 42.7864 190.751 43.8418C189.101 44.8973 187.007 45.4282 184.468 45.4282C181.712 45.4282 179.482 44.812 177.782 43.5764C176.079 42.3408 174.884 40.6218 174.19 38.4161C173.698 36.8898 173.452 34.1122 173.452 30.0832V19.6015H173.449Z" fill="#232524"/>
<path d="M226.717 19.6015V44.7835H220.41V42.1228C219.18 43.2952 217.943 44.1389 216.707 44.6571C215.468 45.1722 214.127 45.4313 212.68 45.4313C209.434 45.4313 206.627 44.1705 204.259 41.6488C201.89 39.1271 200.704 35.9892 200.704 32.2415C200.704 28.3547 201.849 25.1662 204.142 22.6825C206.435 20.1987 209.217 18.9568 212.494 18.9568C214.001 18.9568 215.417 19.2412 216.739 19.8132C218.06 20.3852 219.284 21.2415 220.407 22.3823V19.6015H226.717ZM213.78 24.787C211.831 24.787 210.213 25.4791 208.923 26.86C207.633 28.2409 206.99 30.0105 206.99 32.172C206.99 34.346 207.646 36.1378 208.958 37.5408C210.27 38.9438 211.885 39.6485 213.806 39.6485C215.786 39.6485 217.429 38.9596 218.732 37.5787C220.034 36.1978 220.69 34.3871 220.69 32.1498C220.69 29.96 220.038 28.184 218.732 26.8252C217.423 25.4633 215.774 24.787 213.78 24.787Z" fill="#232524"/>
</g>
</svg>

<svg width="227" height="55" fill="none" xmlns="http://www.w3.org/2000/svg"><path d="M85.47 44.872H9.262C4.147 44.872 0 40.717 0 35.592V9.28C0 4.155 4.147 0 9.263 0h66.943c5.116 0 9.263 4.155 9.263 9.28v35.592z" fill="#34D186"/><path d="M10.663 10.14h6.172l5.053 14.328 5.437-14.328H31.1l5.34 14.164 5.058-14.164h6.213L38.54 35.322h-3.996l-5.358-14.35-5.52 14.35h-3.948L10.663 10.14zM76.462 24.56h-20.26c.293 1.791 1.075 3.213 2.343 4.269 1.27 1.058 2.892 1.586 4.863 1.586 2.356 0 4.38-.825 6.074-2.477l5.315 2.5c-1.325 1.883-2.911 3.273-4.76 4.177-1.848.903-4.043 1.355-6.582 1.355-3.942 0-7.152-1.245-9.631-3.738-2.48-2.493-3.719-5.612-3.719-9.363 0-3.843 1.237-7.031 3.706-9.572 2.472-2.537 5.57-3.808 9.297-3.808 3.959 0 7.176 1.27 9.658 3.808 2.478 2.538 3.718 5.89 3.718 10.055l-.022 1.207zm-6.308-4.974c-.416-1.403-1.236-2.547-2.463-3.426-1.227-.878-2.65-1.318-4.27-1.318-1.76 0-3.302.493-4.627 1.483-.833.616-1.605 1.706-2.315 3.264h13.675v-.003z" fill="#fff"/><path d="M101.816 19.602h6.307v25.181h-6.307V19.602zM90.474 9.881h6.308v34.902h-6.308V9.881z" fill="#232524"/><path d="M104.969 9.234c1.104 0 2.054.4 2.845 1.204.792.802 1.186 1.775 1.186 2.916 0 1.125-.391 2.086-1.173 2.882-.782.796-1.719 1.191-2.81 1.191-1.12 0-2.079-.404-2.867-1.216-.792-.81-1.186-1.795-1.186-2.952 0-1.112.391-2.06 1.173-2.847.782-.787 1.725-1.178 2.832-1.178z" fill="#34D186"/><path d="M120.158 19.602v2.581c1.429-1.207 2.725-2.047 3.886-2.521a9.41 9.41 0 0 1 3.564-.708c2.491 0 4.604.872 6.342 2.616 1.46 1.482 2.192 3.672 2.192 6.573v16.64h-6.238V33.755c0-3.005-.136-4.999-.404-5.988-.268-.99-.738-1.738-1.407-2.253-.668-.515-1.494-.774-2.475-.774-1.274 0-2.369.426-3.283 1.283-.915.856-1.549 2.038-1.902 3.548-.183.787-.278 2.49-.278 5.11v10.102h-6.307V19.602h6.31zM167.094 19.602v21.57c0 4.26-.855 7.39-2.564 9.398-2.296 2.714-5.753 4.073-10.373 4.073-2.463 0-4.535-.31-6.213-.926-1.678-.616-3.094-1.523-4.252-2.72-1.154-1.199-2.009-2.652-2.564-4.365h6.955c.615.711 1.409 1.245 2.378 1.609.968.363 2.116.543 3.44.543 1.694 0 3.056-.262 4.088-.787 1.031-.524 1.76-1.204 2.182-2.038.423-.834.634-2.269.634-4.304-1.11 1.112-2.271 1.909-3.488 2.395-1.217.487-2.596.73-4.135.73-3.371 0-6.222-1.22-8.547-3.656-2.324-2.436-3.488-5.523-3.488-9.259 0-3.997 1.233-7.204 3.697-9.628 2.232-2.19 4.897-3.286 7.991-3.286 1.448 0 2.814.265 4.1.799 1.287.53 2.577 1.41 3.87 2.626v-2.774h6.289zm-12.82 5.255c-1.987 0-3.627.666-4.92 2.003-1.294 1.334-1.94 3.012-1.94 5.034 0 2.098.662 3.817 1.987 5.16 1.324 1.343 2.987 2.013 4.989 2.013 1.956 0 3.57-.657 4.838-1.969 1.271-1.311 1.905-3.03 1.905-5.16 0-2.098-.64-3.804-1.917-5.116-1.278-1.311-2.924-1.965-4.942-1.965zM173.449 19.602h6.374V31.73c0 2.36.161 4 .486 4.917.324.92.845 1.63 1.564 2.139.719.509 1.602.765 2.652.765s1.94-.25 2.675-.753c.735-.502 1.277-1.238 1.633-2.208.262-.724.395-2.276.395-4.652V19.602h6.307V30.27c0 4.398-.347 7.407-1.04 9.025-.849 1.975-2.095 3.491-3.744 4.547-1.65 1.055-3.744 1.586-6.283 1.586-2.756 0-4.986-.616-6.686-1.852-1.703-1.235-2.898-2.954-3.592-5.16-.492-1.526-.738-4.304-.738-8.333V19.602h-.003zM226.717 19.602v25.181h-6.307v-2.66c-1.23 1.172-2.467 2.016-3.703 2.534-1.239.515-2.58.774-4.027.774-3.246 0-6.053-1.26-8.421-3.782-2.369-2.522-3.555-5.66-3.555-9.407 0-3.887 1.145-7.076 3.438-9.56 2.293-2.483 5.075-3.725 8.352-3.725 1.507 0 2.923.284 4.245.856 1.321.572 2.545 1.428 3.668 2.57v-2.781h6.31zm-12.937 5.185c-1.949 0-3.567.692-4.857 2.073-1.29 1.38-1.933 3.15-1.933 5.312 0 2.174.656 3.966 1.968 5.369 1.312 1.403 2.927 2.108 4.848 2.108 1.98 0 3.623-.69 4.926-2.07 1.302-1.381 1.958-3.192 1.958-5.43 0-2.189-.652-3.965-1.958-5.324-1.309-1.362-2.958-2.038-4.952-2.038z" fill="#232524"/></svg>
